src/assets/common/images/icon-dove-yellow-error.svg

<svg xmlns="http://www.w3.org/2000/svg" width="70" height="70"><path fill="#FFCB33" fill-rule="evenodd" d="M35 0C7.546 0 0 7.546 0 35s7.448 35 35 35 35-7.448 35-35S62.454 0 35 0zm0 65.002C10.332 65.002 4.998 59.668 4.998 35S10.332 4.998 35 4.998 65.002 10.332 65.002 35 59.668 65.002 35 65.002zM48.678 52.5c-.49 0-1.89-.966-1.848-.938 0 0-4.312-2.492-11.816-2.492-7.504 0-11.816 2.492-11.816 2.492s-1.372.938-1.848.938c-1.288 0-2.506-1.05-2.506-2.352 0-1.484 1.722-2.506 1.722-2.506S27.58 44.058 35 44.058c7.42 0 14.448 3.598 14.448 3.598s1.722.938 1.722 2.506c0 1.288-1.204 2.338-2.492 2.338zm-26.18-20.006c2.758 0 4.998-2.24 4.998-4.998s-2.24-4.998-4.998-4.998-4.998 2.24-4.998 4.998 2.24 4.998 4.998 4.998zm25.004-9.996c-2.758 0-4.998 2.24-4.998 4.998s2.24 4.998 4.998 4.998 4.998-2.24 4.998-4.998-2.24-4.998-4.998-4.998z"/></svg>

<?xml version="1.0" encoding="UTF-8"?>
<svg width="70px" height="70px" viewBox="0 0 70 70" version="1.1" xmlns="http://www.w3.org/2000/svg" xmlns:xlink="http://www.w3.org/1999/xlink">
    <!-- Generator: Sketch 42 (36781) - http://www.bohemiancoding.com/sketch -->
    <title>icon-dove-yellow-error</title>
    <desc>Created with Sketch.</desc>
    <defs></defs>
    <g id="Desktop" stroke="none" stroke-width="1" fill="none" fill-rule="evenodd">
        <g id="Desktop-Error" transform="translate(-665.000000, -240.000000)" fill="#FFCB33">
            <g id="icon-dove-yellow-error" transform="translate(665.000000, 240.000000)">
                <path d="M35,0 C7.546,0 0,7.546 0,35 C0,62.454 7.448,70 35,70 C62.552,70 70,62.552 70,35 C70,7.448 62.454,0 35,0 Z M35,65.002 C10.332,65.002 4.998,59.668 4.998,35 C4.998,10.332 10.332,4.998 35,4.998 C59.668,4.998 65.002,10.332 65.002,35 C65.002,59.668 59.668,65.002 35,65.002 Z M48.678,52.5 C48.188,52.5 46.788,51.534 46.83,51.562 C46.83,51.562 42.518,49.07 35.014,49.07 C27.51,49.07 23.198,51.562 23.198,51.562 C23.198,51.562 21.826,52.5 21.35,52.5 C20.062,52.5 18.844,51.45 18.844,50.148 C18.844,48.664 20.566,47.642 20.566,47.642 C20.566,47.642 27.58,44.058 35,44.058 C42.42,44.058 49.448,47.656 49.448,47.656 C49.448,47.656 51.17,48.594 51.17,50.162 C51.17,51.45 49.966,52.5 48.678,52.5 Z M22.498,32.494 C25.256,32.494 27.496,30.254 27.496,27.496 C27.496,24.738 25.256,22.498 22.498,22.498 C19.74,22.498 17.5,24.738 17.5,27.496 C17.5,30.254 19.74,32.494 22.498,32.494 Z M47.502,22.498 C44.744,22.498 42.504,24.738 42.504,27.496 C42.504,30.254 44.744,32.494 47.502,32.494 C50.26,32.494 52.5,30.254 52.5,27.496 C52.5,24.738 50.26,22.498 47.502,22.498 Z" id="Shape"></path>
            </g>
        </g>
    </g>
</svg>
